img/customers__money-back.svg

<svg width="38" height="38" viewBox="0 0 38 38" fill="none" xmlns="http://www.w3.org/2000/svg">
<g clip-path="url(#clip0)">
<path d="M31.438 7.97145C28.7149 5.24836 25.2561 3.52893 21.5099 2.99686L22.6063 1.90043C23.0411 1.46565 23.0411 0.760798 22.6063 0.326024C22.1716 -0.108675 21.4667 -0.108675 21.0319 0.326024L18.2125 3.14537C17.7778 3.58007 17.7778 4.285 18.2125 4.71977L21.0318 7.53905C21.2492 7.75644 21.5341 7.86517 21.819 7.86517C22.1038 7.86517 22.3888 7.75644 22.6061 7.53905C23.0409 7.10435 23.0409 6.39942 22.6061 5.96465L21.9781 5.33661C29.029 6.72747 34.3634 12.9569 34.3634 20.4096C34.3636 28.8812 27.4713 35.7734 18.9998 35.7734C10.5282 35.7734 3.63599 28.8812 3.63599 20.4097C3.63599 17.1771 4.62807 14.0848 6.50506 11.4673C8.34309 8.90401 10.8769 6.99131 13.8328 5.93607C14.4119 5.7293 14.7137 5.09235 14.507 4.51322C14.3003 3.93417 13.6632 3.6324 13.0841 3.8391C9.69951 5.04745 6.79882 7.23661 4.69553 10.1698C2.54571 13.1679 1.40942 16.7089 1.40942 20.4098C1.40942 25.1083 3.23914 29.5256 6.56154 32.848C9.88394 36.1702 14.3012 38 18.9998 38C23.6984 38 28.1156 36.1703 31.438 32.8479C34.7604 29.5255 36.5901 25.1083 36.5901 20.4097C36.5901 15.7111 34.7604 11.2938 31.438 7.97145Z" fill="white"/>
<path d="M7.56128 20.4098C7.56128 26.7168 12.6925 31.848 18.9996 31.848C25.3066 31.848 30.4378 26.7168 30.4378 20.4098C30.4378 14.1028 25.3066 8.97144 18.9996 8.97144C12.6924 8.97144 7.56128 14.1027 7.56128 20.4098ZM18.9996 11.198C24.079 11.198 28.2112 15.3304 28.2112 20.4097C28.2112 25.489 24.0789 29.6215 18.9996 29.6215C13.9203 29.6215 9.78784 25.4891 9.78784 20.4098C9.78784 15.3305 13.9202 11.198 18.9996 11.198Z" fill="white"/>
<path d="M20.3592 19.3052C19.4785 18.9939 18.5057 18.6188 17.9682 18.1972C17.8337 18.0917 17.7763 17.8244 17.8285 17.547C17.8559 17.4016 17.9834 16.9156 18.4729 16.7682C19.3344 16.5086 19.9213 16.85 20.1337 17.0086C20.6264 17.3769 21.3239 17.2761 21.6919 16.7836C22.0601 16.291 21.9593 15.5935 21.4669 15.2253C21.2628 15.0727 20.7651 14.7464 20.0527 14.5692V14.2705C20.0527 13.6557 19.5543 13.1572 18.9394 13.1572C18.3246 13.1572 17.8262 13.6557 17.8262 14.2705V14.6378C16.7041 14.9777 15.8667 15.9339 15.6405 17.1347C15.4313 18.2452 15.7967 19.3236 16.5942 19.9491C17.3829 20.5677 18.5131 21.0142 19.6171 21.4044C20.4879 21.7122 20.5136 22.379 20.4514 22.7491C20.3475 23.3668 19.8278 24.0345 18.932 24.0404C17.9967 24.0465 17.7306 24.0044 17.0247 23.5426C16.51 23.2058 15.8202 23.3501 15.4835 23.8648C15.1469 24.3793 15.2912 25.0692 15.8057 25.4059C16.5736 25.9082 17.149 26.1273 17.8262 26.215V26.549C17.8262 27.1638 18.3246 27.6623 18.9394 27.6623C19.5543 27.6623 20.0527 27.1638 20.0527 26.549V26.1012C20.5773 25.9416 21.0567 25.669 21.4699 25.2895C22.0894 24.7203 22.5074 23.9491 22.6471 23.1181C22.9323 21.4221 22.0128 19.8898 20.3592 19.3052Z" fill="white"/>
</g>
<defs>
<clipPath id="clip0">
<rect width="38" height="38" fill="white"/>
</clipPath>
</defs>
</svg>

<svg width="38" height="38" viewBox="0 0 38 38" fill="none" xmlns="http://www.w3.org/2000/svg"><g clip-path="url(#clip0)" fill="#fff"><path d="M31.438 7.971a17.458 17.458 0 00-9.928-4.974L22.606 1.9A1.113 1.113 0 1021.032.326l-2.82 2.82a1.113 1.113 0 000 1.574l2.82 2.819a1.11 1.11 0 001.574 0 1.113 1.113 0 000-1.574l-.628-.628c7.051 1.39 12.385 7.62 12.385 15.073 0 8.471-6.892 15.363-15.363 15.363-8.472 0-15.364-6.892-15.364-15.363 0-3.233.992-6.325 2.87-8.943a15.32 15.32 0 017.327-5.53 1.113 1.113 0 10-.749-2.098 17.537 17.537 0 00-8.388 6.33 17.47 17.47 0 00-3.287 10.24c0 4.7 1.83 9.117 5.153 12.439A17.476 17.476 0 0019 38c4.698 0 9.116-1.83 12.438-5.152A17.475 17.475 0 0036.59 20.41c0-4.699-1.83-9.116-5.152-12.439z"/><path d="M7.561 20.41c0 6.307 5.132 11.438 11.439 11.438s11.438-5.131 11.438-11.438S25.307 8.97 19 8.97c-6.308 0-11.439 5.132-11.439 11.439zM19 11.198c5.079 0 9.211 4.132 9.211 9.212 0 5.079-4.132 9.212-9.211 9.212-5.08 0-9.212-4.133-9.212-9.212 0-5.08 4.132-9.212 9.212-9.212z"/><path d="M20.36 19.305c-.881-.311-1.854-.686-2.392-1.108-.134-.105-.192-.373-.14-.65.028-.145.155-.631.645-.779.861-.26 1.448.082 1.66.24a1.113 1.113 0 101.334-1.783 4.05 4.05 0 00-1.414-.656v-.299a1.113 1.113 0 00-2.227 0v.368c-1.122.34-1.96 1.296-2.186 2.497-.209 1.11.157 2.189.954 2.814.789.619 1.92 1.065 3.023 1.455.87.308.897.975.834 1.345-.104.618-.623 1.286-1.519 1.291-.935.007-1.201-.036-1.907-.497a1.113 1.113 0 10-1.22 1.863c.769.502 1.344.721 2.021.809v.334a1.113 1.113 0 102.227 0v-.448a3.658 3.658 0 001.417-.811 3.823 3.823 0 001.177-2.172c.285-1.696-.634-3.228-2.288-3.813z"/></g><defs><clipPath id="clip0"><path fill="#fff" d="M0 0h38v38H0z"/></clipPath></defs></svg>
